src/new/technology-icons/rh.svg

<svg viewBox="0 0 25 25">
  <g stroke="none" strokeWidth="1" fill="none" fillRule="evenodd">
    <g id="Group-7" fillRule="nonzero">
      <path
        d="M18,1.07142667 C20.7206996,1.07450542 22.9254946,3.27930039 22.9285733,6 L22.9285733,18 C22.9254982,20.7207011 20.7207011,22.9254982 18,22.9285733 L6,22.9285733 C3.27930039,22.9254946 1.07450542,20.7206996 1.07142667,18 L1.07142667,6 C1.07450542,3.27930039 3.27930039,1.07450542 6,1.07142667 L18,1.07142667"
        id="Path"
        fill="#FFFFFF"
      ></path>
      <path
        d="M18,1.07142667 C20.7206996,1.07450542 22.9254946,3.27930039 22.9285733,6 L22.9285733,18 C22.9254982,20.7207011 20.7207011,22.9254982 18,22.9285733 L6,22.9285733 C3.27930039,22.9254946 1.07450542,20.7206996 1.07142667,18 L1.07142667,6 C1.07450542,3.27930039 3.27930039,1.07450542 6,1.07142667 L18,1.07142667 M18,0 L6,0 C2.6862915,0 0,2.6862915 0,6 L0,18 C0,21.3137085 2.6862915,24 6,24 L18,24 C21.3137085,24 24,21.3137085 24,18 L24,6 C24,2.6862915 21.3137085,0 18,0 L18,0 Z"
        id="Shape"
        fill="#000000"
      ></path>
      <path
        d="M14.6211554,12.3800934 C15.6524701,12.3800934 17.1446202,12.1674001 17.1446202,10.9407044 C17.1477036,10.846031 17.1391203,10.7513381 17.1190641,10.6587622 L16.5048918,7.99102867 C16.3630963,7.40406134 16.2386131,7.13778263 15.2081227,6.62253743 C14.4084621,6.21363884 12.6665212,5.53846154 12.151276,5.53846154 C11.6714797,5.53846154 11.5321574,6.15675577 10.9600291,6.15675577 C10.409335,6.15675577 10.0004364,5.69509608 9.48519125,5.69509608 C8.99055586,5.69509608 8.66821846,6.03227253 8.41925199,6.72558647 C8.41925199,6.72558647 7.72593805,8.68104504 7.63690368,8.96463599 C7.62275244,9.0167127 7.61663641,9.070645 7.61876705,9.1245681 C7.61876705,9.88465782 10.6113111,12.3767958 14.6211554,12.3767958 M17.3029036,11.4386373 C17.4455234,12.1138146 17.4455234,12.1847124 17.4455234,12.2737467 C17.4455234,13.427896 16.1479299,14.0684488 14.4422622,14.0684488 C10.5874038,14.070922 7.21069285,11.812087 7.21069285,10.3191126 C7.21047001,10.1112971 7.25283587,9.90564029 7.33517609,9.714833 C5.94854822,9.78408195 4.15384615,10.0313996 4.15384615,11.6158817 C4.15384615,14.2110687 10.3029884,17.4097109 15.1718494,17.4097109 C18.9046978,17.4097109 19.8461538,15.7213554 19.8461538,14.388313 C19.8461538,13.339686 18.9393223,12.1492635 17.3045523,11.4386373"
        id="Shape"
        fill="#EE0000"
      ></path>
      <path
        d="M17.1190641,10.6587622 C17.1391203,10.7513381 17.1477036,10.846031 17.1446202,10.9407044 C17.1446202,12.1674001 15.6524701,12.3800934 14.6211554,12.3800934 C10.6113111,12.3800934 7.61876705,9.88795539 7.61876705,9.1245681 C7.61663641,9.070645 7.62275244,9.0167127 7.63690368,8.96463599 L7.33517609,9.71153543 C7.25283587,9.90234272 7.21047001,10.1079995 7.21069198,10.315815 C7.21069198,11.8087895 10.5907013,14.0651512 14.443911,14.0651512 C16.1495787,14.0651512 17.4471722,13.4254228 17.4471722,12.2704492 C17.4471722,12.1814148 17.4471722,12.1105171 17.3045523,11.4353398 L17.1190641,10.6587622 Z"
        id="Path"
        fill="#000000"
      ></path>
    </g>
  </g>
</svg>

<svg viewBox="0 0 25 25">
    <g fill="none">
        <path fill="#fff" d="M18 1.071A4.934 4.934 0 0 1 22.929 6v12A4.934 4.934 0 0 1 18 22.929H6A4.934 4.934 0 0 1 1.071 18V6A4.934 4.934 0 0 1 6 1.071z"/>
        <path fill="#000" d="M18 1.071A4.934 4.934 0 0 1 22.929 6v12A4.934 4.934 0 0 1 18 22.929H6A4.934 4.934 0 0 1 1.071 18V6A4.934 4.934 0 0 1 6 1.071zM18 0H6a6 6 0 0 0-6 6v12a6 6 0 0 0 6 6h12a6 6 0 0 0 6-6V6a6 6 0 0 0-6-6"/>
        <path fill="#e00" d="M14.621 12.38c1.031 0 2.524-.213 2.524-1.44a1.2 1.2 0 0 0-.026-.281l-.614-2.668c-.142-.587-.266-.853-1.297-1.368-.8-.41-2.541-1.085-3.057-1.085-.48 0-.619.619-1.191.619-.55 0-.96-.462-1.475-.462-.494 0-.817.337-1.066 1.03 0 0-.693 1.956-.782 2.24a.5.5 0 0 0-.018.16c0 .76 2.992 3.252 7.002 3.252m2.682-.938c.143.675.143.746.143.835 0 1.154-1.298 1.794-3.004 1.794-3.855.003-7.231-2.256-7.231-3.749 0-.208.042-.413.124-.604-1.386.07-3.181.316-3.181 1.9 0 2.596 6.149 5.795 11.018 5.795 3.733 0 4.674-1.689 4.674-3.022 0-1.048-.907-2.239-2.541-2.95"/>
        <path fill="#000" d="M17.12 10.659q.03.139.025.282c0 1.226-1.493 1.44-2.524 1.44-4.01 0-7.002-2.493-7.002-3.256a.5.5 0 0 1 .018-.16l-.302.747c-.082.19-.125.396-.124.604 0 1.493 3.38 3.75 7.233 3.75 1.706 0 3.003-.64 3.003-1.796 0-.089 0-.16-.142-.835z"/>
    </g>
</svg>
